X: 457
T: Lihongtai zhonggua
L: 1/8
M: 2/4
K: Bb
c Bc2 [I:setbarnb 1]| 
c f e f | 
c2B c | 
f d/ c/ B F | 
B FB2 | 
c d c B | 
G F/ G/ B G | 
F4 |]

@@@ Tune index: 9331
